assets/1. 1-F/Cloud with lightning and rain/Color/Cloud.With.Lightning.And.Rain-color.svg

<svg width="100%" height="100%" viewBox="0 0 32 32" fill="none" xmlns="http://www.w3.org/2000/svg">
<g filter="url(#filter0_i_18_15029)">
<path d="M7.46712 23.4729L5.15713 26.6328C4.58713 27.4128 3.49712 27.5829 2.71712 27.0129C1.93712 26.4429 1.76712 25.3528 2.33712 24.5728L4.64712 21.4128C5.21712 20.6328 6.30712 20.4629 7.08712 21.0329C7.86712 21.6029 8.03712 22.6929 7.46712 23.4729Z" fill="#535DFF"/>
<path d="M7.46712 23.4729L5.15713 26.6328C4.58713 27.4128 3.49712 27.5829 2.71712 27.0129C1.93712 26.4429 1.76712 25.3528 2.33712 24.5728L4.64712 21.4128C5.21712 20.6328 6.30712 20.4629 7.08712 21.0329C7.86712 21.6029 8.03712 22.6929 7.46712 23.4729Z" fill="url(#paint0_radial_18_15029)"/>
</g>
<g filter="url(#filter1_i_18_15029)">
<path d="M12.4671 26.1229L10.1571 29.2829C9.58713 30.0629 8.49712 30.2329 7.71712 29.6629C6.93712 29.0929 6.76712 28.0029 7.33712 27.2229L9.64712 24.0629C10.2171 23.2829 11.3071 23.1129 12.0871 23.6829C12.8671 24.2429 13.0371 25.3429 12.4671 26.1229Z" fill="#535DFF"/>
<path d="M12.4671 26.1229L10.1571 29.2829C9.58713 30.0629 8.49712 30.2329 7.71712 29.6629C6.93712 29.0929 6.76712 28.0029 7.33712 27.2229L9.64712 24.0629C10.2171 23.2829 11.3071 23.1129 12.0871 23.6829C12.8671 24.2429 13.0371 25.3429 12.4671 26.1229Z" fill="url(#paint1_radial_18_15029)"/>
</g>
<g filter="url(#filter2_i_18_15029)">
<path d="M23.567 23.4729L21.257 26.6328C20.687 27.4128 19.597 27.5829 18.817 27.0129C18.037 26.4429 17.867 25.3528 18.437 24.5728L20.747 21.4128C21.317 20.6328 22.407 20.4629 23.187 21.0329C23.967 21.6029 24.137 22.6929 23.567 23.4729Z" fill="#535DFF"/>
<path d="M23.567 23.4729L21.257 26.6328C20.687 27.4128 19.597 27.5829 18.817 27.0129C18.037 26.4429 17.867 25.3528 18.437 24.5728L20.747 21.4128C21.317 20.6328 22.407 20.4629 23.187 21.0329C23.967 21.6029 24.137 22.6929 23.567 23.4729Z" fill="url(#paint2_radial_18_15029)"/>
</g>
<g filter="url(#filter3_i_18_15029)">
<path d="M28.567 26.1229L26.257 29.2829C25.687 30.0629 24.597 30.2329 23.817 29.6629C23.037 29.0929 22.867 28.0029 23.437 27.2229L25.747 24.0629C26.317 23.2829 27.407 23.1129 28.187 23.6829C28.967 24.2429 29.137 25.3429 28.567 26.1229Z" fill="#535DFF"/>
<path d="M28.567 26.1229L26.257 29.2829C25.687 30.0629 24.597 30.2329 23.817 29.6629C23.037 29.0929 22.867 28.0029 23.437 27.2229L25.747 24.0629C26.317 23.2829 27.407 23.1129 28.187 23.6829C28.967 24.2429 29.137 25.3429 28.567 26.1229Z" fill="url(#paint3_radial_18_15029)"/>
</g>
<path d="M12.457 12.0029C14.39 12.0029 15.957 10.4359 15.957 8.50286C15.957 6.56986 14.39 5.00287 12.457 5.00287C10.524 5.00287 8.95703 6.56986 8.95703 8.50286C8.95703 10.4359 10.524 12.0029 12.457 12.0029Z" fill="url(#paint4_radial_18_15029)"/>
<g filter="url(#filter4_i_18_15029)">
<path d="M29.957 10.9944C29.957 15.9697 25.9276 20.0029 20.957 20.0029H8.56079C4.91348 20.0029 1.95703 16.9313 1.95703 13.4968C1.95703 10.0622 4.85437 7.06457 8.50168 7.06457C9.23471 7.06457 10.3239 7.33145 11.2252 7.67911C11.8941 7.93716 12.7947 7.61455 13.1152 6.97318C14.5014 4.1996 17.3848 2.12665 20.9825 2.12665C25.953 2.12665 29.957 6.01918 29.957 10.9944Z" fill="#3124C5"/>
<path d="M29.957 10.9944C29.957 15.9697 25.9276 20.0029 20.957 20.0029H8.56079C4.91348 20.0029 1.95703 16.9313 1.95703 13.4968C1.95703 10.0622 4.85437 7.06457 8.50168 7.06457C9.23471 7.06457 10.3239 7.33145 11.2252 7.67911C11.8941 7.93716 12.7947 7.61455 13.1152 6.97318C14.5014 4.1996 17.3848 2.12665 20.9825 2.12665C25.953 2.12665 29.957 6.01918 29.957 10.9944Z" fill="url(#paint5_radial_18_15029)"/>
<path d="M29.957 10.9944C29.957 15.9697 25.9276 20.0029 20.957 20.0029H8.56079C4.91348 20.0029 1.95703 16.9313 1.95703 13.4968C1.95703 10.0622 4.85437 7.06457 8.50168 7.06457C9.23471 7.06457 10.3239 7.33145 11.2252 7.67911C11.8941 7.93716 12.7947 7.61455 13.1152 6.97318C14.5014 4.1996 17.3848 2.12665 20.9825 2.12665C25.953 2.12665 29.957 6.01918 29.957 10.9944Z" fill="url(#paint6_radial_18_15029)"/>
</g>
<path d="M30 10.9944C30 15.9697 25.9706 20.0029 21 20.0029H8.60376C4.95645 20.0029 2 16.9313 2 13.4968C2 10.0622 4.89734 7.06457 8.54465 7.06457C9.27768 7.06457 10.3669 7.33145 11.2681 7.67911C11.9371 7.93716 12.8377 7.61455 13.1582 6.97318C14.5444 4.1996 17.4278 2.12665 21.0254 2.12665C25.996 2.12665 30 6.01918 30 10.9944Z" fill="url(#paint7_radial_18_15029)"/>
<path d="M30 10.9944C30 15.9697 25.9706 20.0029 21 20.0029H8.60376C4.95645 20.0029 2 16.9313 2 13.4968C2 10.0622 4.89734 7.06457 8.54465 7.06457C9.27768 7.06457 10.3669 7.33145 11.2681 7.67911C11.9371 7.93716 12.8377 7.61455 13.1582 6.97318C14.5444 4.1996 17.4278 2.12665 21.0254 2.12665C25.996 2.12665 30 6.01918 30 10.9944Z" fill="url(#paint8_radial_18_15029)"/>
<g filter="url(#filter5_i_18_15029)">
<path d="M19.5424 19.6248L14.6898 26.9037C14.4703 27.233 13.957 27.0776 13.957 26.6818L13.9569 21.4029C13.9569 21.182 13.7778 21.0029 13.5569 21.0029H12.6787C12.3645 21.0029 12.173 20.6573 12.3395 20.3909L16.2178 14.1856C16.4308 13.8448 16.957 13.9957 16.957 14.3976V18.6029C16.957 18.8238 17.1361 19.0029 17.357 19.0029H19.2096C19.5291 19.0029 19.7196 19.3589 19.5424 19.6248Z" fill="url(#paint9_linear_18_15029)"/>
</g>
<g filter="url(#filter6_f_18_15029)">
<path d="M11.957 9.11285C12.5542 9.80689 13.7583 11.776 13.7971 14.1003" stroke="url(#paint10_linear_18_15029)" stroke-width="0.5" stroke-linecap="round"/>
</g>
<defs>
<filter id="filter0_i_18_15029" x="2" y="20.5957" width="6.40426" height="6.75424" filterUnits="userSpaceOnUse" color-interpolation-filters="sRGB">
<feFlood flood-opacity="0" result="BackgroundImageFix"/>
<feBlend mode="normal" in="SourceGraphic" in2="BackgroundImageFix" result="shape"/>
<feColorMatrix in="SourceAlpha" type="matrix" values="0 0 0 0 0 0 0 0 0 0 0 0 0 0 0 0 0 0 127 0" result="hardAlpha"/>
<feOffset dx="0.6" dy="-0.1"/>
<feGaussianBlur stdDeviation="0.75"/>
<feComposite in2="hardAlpha" operator="arithmetic" k2="-1" k3="1"/>
<feColorMatrix type="matrix" values="0 0 0 0 0.256493 0 0 0 0 0.282719 0 0 0 0 0.741667 0 0 0 1 0"/>
<feBlend mode="normal" in2="shape" result="effect1_innerShadow_18_15029"/>
</filter>
<filter id="filter1_i_18_15029" x="7" y="23.2458" width="6.40426" height="6.75424" filterUnits="userSpaceOnUse" color-interpolation-filters="sRGB">
<feFlood flood-opacity="0" result="BackgroundImageFix"/>
<feBlend mode="normal" in="SourceGraphic" in2="BackgroundImageFix" result="shape"/>
<feColorMatrix in="SourceAlpha" type="matrix" values="0 0 0 0 0 0 0 0 0 0 0 0 0 0 0 0 0 0 127 0" result="hardAlpha"/>
<feOffset dx="0.6" dy="-0.1"/>
<feGaussianBlur stdDeviation="0.75"/>
<feComposite in2="hardAlpha" operator="arithmetic" k2="-1" k3="1"/>
<feColorMatrix type="matrix" values="0 0 0 0 0.256493 0 0 0 0 0.282719 0 0 0 0 0.741667 0 0 0 1 0"/>
<feBlend mode="normal" in2="shape" result="effect1_innerShadow_18_15029"/>
</filter>
<filter id="filter2_i_18_15029" x="18.0999" y="20.5957" width="6.40426" height="6.75424" filterUnits="userSpaceOnUse" color-interpolation-filters="sRGB">
<feFlood flood-opacity="0" result="BackgroundImageFix"/>
<feBlend mode="normal" in="SourceGraphic" in2="BackgroundImageFix" result="shape"/>
<feColorMatrix in="SourceAlpha" type="matrix" values="0 0 0 0 0 0 0 0 0 0 0 0 0 0 0 0 0 0 127 0" result="hardAlpha"/>
<feOffset dx="0.6" dy="-0.1"/>
<feGaussianBlur stdDeviation="0.75"/>
<feComposite in2="hardAlpha" operator="arithmetic" k2="-1" k3="1"/>
<feColorMatrix type="matrix" values="0 0 0 0 0.256493 0 0 0 0 0.282719 0 0 0 0 0.741667 0 0 0 1 0"/>
<feBlend mode="normal" in2="shape" result="effect1_innerShadow_18_15029"/>
</filter>
<filter id="filter3_i_18_15029" x="23.0999" y="23.2458" width="6.40426" height="6.75424" filterUnits="userSpaceOnUse" color-interpolation-filters="sRGB">
<feFlood flood-opacity="0" result="BackgroundImageFix"/>
<feBlend mode="normal" in="SourceGraphic" in2="BackgroundImageFix" result="shape"/>
<feColorMatrix in="SourceAlpha" type="matrix" values="0 0 0 0 0 0 0 0 0 0 0 0 0 0 0 0 0 0 127 0" result="hardAlpha"/>
<feOffset dx="0.6" dy="-0.1"/>
<feGaussianBlur stdDeviation="0.75"/>
<feComposite in2="hardAlpha" operator="arithmetic" k2="-1" k3="1"/>
<feColorMatrix type="matrix" values="0 0 0 0 0.256493 0 0 0 0 0.282719 0 0 0 0 0.741667 0 0 0 1 0"/>
<feBlend mode="normal" in2="shape" result="effect1_innerShadow_18_15029"/>
</filter>
<filter id="filter4_i_18_15029" x="1.95703" y="0.126648" width="29" height="19.8763" filterUnits="userSpaceOnUse" color-interpolation-filters="sRGB">
<feFlood flood-opacity="0" result="BackgroundImageFix"/>
<feBlend mode="normal" in="SourceGraphic" in2="BackgroundImageFix" result="shape"/>
<feColorMatrix in="SourceAlpha" type="matrix" values="0 0 0 0 0 0 0 0 0 0 0 0 0 0 0 0 0 0 127 0" result="hardAlpha"/>
<feOffset dx="1" dy="-2"/>
<feGaussianBlur stdDeviation="1"/>
<feComposite in2="hardAlpha" operator="arithmetic" k2="-1" k3="1"/>
<feColorMatrix type="matrix" values="0 0 0 0 0.207843 0 0 0 0 0.12549 0 0 0 0 0.596078 0 0 0 1 0"/>
<feBlend mode="normal" in2="shape" result="effect1_innerShadow_18_15029"/>
</filter>
<filter id="filter5_i_18_15029" x="12.2781" y="13.4969" width="7.83221" height="13.5856" filterUnits="userSpaceOnUse" color-interpolation-filters="sRGB">
<feFlood flood-opacity="0" result="BackgroundImageFix"/>
<feBlend mode="normal" in="SourceGraphic" in2="BackgroundImageFix" result="shape"/>
<feColorMatrix in="SourceAlpha" type="matrix" values="0 0 0 0 0 0 0 0 0 0 0 0 0 0 0 0 0 0 127 0" result="hardAlpha"/>
<feOffset dx="0.5" dy="-0.5"/>
<feGaussianBlur stdDeviation="0.25"/>
<feComposite in2="hardAlpha" operator="arithmetic" k2="-1" k3="1"/>
<feColorMatrix type="matrix" values="0 0 0 0 0.908333 0 0 0 0 0.312137 0 0 0 0 0.0454167 0 0 0 0.5 0"/>
<feBlend mode="normal" in2="shape" result="effect1_innerShadow_18_15029"/>
</filter>
<filter id="filter6_f_18_15029" x="10.707" y="7.86285" width="4.34003" height="7.4874" filterUnits="userSpaceOnUse" color-interpolation-filters="sRGB">
<feFlood flood-opacity="0" result="BackgroundImageFix"/>
<feBlend mode="normal" in="SourceGraphic" in2="BackgroundImageFix" result="shape"/>
<feGaussianBlur stdDeviation="0.5" result="effect1_foregroundBlur_18_15029"/>
</filter>
<radialGradient id="paint0_radial_18_15029" cx="0" cy="0" r="1" gradientUnits="userSpaceOnUse" gradientTransform="translate(7.80424 21.7477) rotate(145.744) scale(2.34511 2.04556)">
<stop stop-color="#627AFE"/>
<stop offset="1" stop-color="#627AFE" stop-opacity="0"/>
</radialGradient>
<radialGradient id="paint1_radial_18_15029" cx="0" cy="0" r="1" gradientUnits="userSpaceOnUse" gradientTransform="translate(12.8042 24.3977) rotate(145.744) scale(2.34511 2.04556)">
<stop stop-color="#627AFE"/>
<stop offset="1" stop-color="#627AFE" stop-opacity="0"/>
</radialGradient>
<radialGradient id="paint2_radial_18_15029" cx="0" cy="0" r="1" gradientUnits="userSpaceOnUse" gradientTransform="translate(23.9041 21.7477) rotate(145.744) scale(2.34511 2.04556)">
<stop stop-color="#627AFE"/>
<stop offset="1" stop-color="#627AFE" stop-opacity="0"/>
</radialGradient>
<radialGradient id="paint3_radial_18_15029" cx="0" cy="0" r="1" gradientUnits="userSpaceOnUse" gradientTransform="translate(28.9041 24.3977) rotate(145.744) scale(2.34511 2.04556)">
<stop stop-color="#627AFE"/>
<stop offset="1" stop-color="#627AFE" stop-opacity="0"/>
</radialGradient>
<radialGradient id="paint4_radial_18_15029" cx="0" cy="0" r="1" gradientUnits="userSpaceOnUse" gradientTransform="translate(13.4368 5.74919) rotate(140.486) scale(3.98677 3.40611)">
<stop stop-color="#4C42D7"/>
<stop offset="1" stop-color="#35209B"/>
</radialGradient>
<radialGradient id="paint5_radial_18_15029" cx="0" cy="0" r="1" gradientUnits="userSpaceOnUse" gradientTransform="translate(14.3176 19.5719) rotate(125.266) scale(8.30268 5.21837)">
<stop offset="0.303281" stop-color="#381B90"/>
<stop offset="1" stop-color="#381B90" stop-opacity="0"/>
</radialGradient>
<radialGradient id="paint6_radial_18_15029" cx="0" cy="0" r="1" gradientUnits="userSpaceOnUse" gradientTransform="translate(9.81898 11.0648) rotate(133.441) scale(5.78115 5.45881)">
<stop stop-color="#574ADF"/>
<stop offset="1" stop-color="#574ADF" stop-opacity="0"/>
</radialGradient>
<radialGradient id="paint7_radial_18_15029" cx="0" cy="0" r="1" gradientUnits="userSpaceOnUse" gradientTransform="translate(24.6743 7.12758) rotate(142.503) scale(10.9332 11.9987)">
<stop offset="0.141507" stop-color="#6051FF"/>
<stop offset="1" stop-color="#6051FF" stop-opacity="0"/>
</radialGradient>
<radialGradient id="paint8_radial_18_15029" cx="0" cy="0" r="1" gradientUnits="userSpaceOnUse" gradientTransform="translate(20.843 10.3319) rotate(170.656) scale(19.0964 16.315)">
<stop offset="0.799468" stop-color="#35209A" stop-opacity="0"/>
<stop offset="1" stop-color="#35209A"/>
</radialGradient>
<linearGradient id="paint9_linear_18_15029" x1="16.0347" y1="12.6133" x2="16.0347" y2="25.8114" gradientUnits="userSpaceOnUse">
<stop offset="0.3542" stop-color="#FF9B49"/>
<stop offset="1" stop-color="#FF4E4B"/>
</linearGradient>
<linearGradient id="paint10_linear_18_15029" x1="12.2839" y1="10.3234" x2="14.1239" y2="15.8434" gradientUnits="userSpaceOnUse">
<stop stop-color="#554BD3"/>
<stop offset="1" stop-color="#554BD3" stop-opacity="0"/>
</linearGradient>
</defs>
</svg>

<svg width="100%" height="100%" viewBox="0 0 32 32" xmlns="http://www.w3.org/2000/svg"><g filter="url(#a)"><path fill="#535DFF" d="m7.467 23.473-2.31 3.16c-.57.78-1.66.95-2.44.38s-.95-1.66-.38-2.44l2.31-3.16c.57-.78 1.66-.95 2.44-.38s.95 1.66.38 2.44"/><path fill="url(#b)" d="m7.467 23.473-2.31 3.16c-.57.78-1.66.95-2.44.38s-.95-1.66-.38-2.44l2.31-3.16c.57-.78 1.66-.95 2.44-.38s.95 1.66.38 2.44"/></g><g filter="url(#c)"><path fill="#535DFF" d="m12.467 26.123-2.31 3.16c-.57.78-1.66.95-2.44.38s-.95-1.66-.38-2.44l2.31-3.16c.57-.78 1.66-.95 2.44-.38.78.56.95 1.66.38 2.44"/><path fill="url(#d)" d="m12.467 26.123-2.31 3.16c-.57.78-1.66.95-2.44.38s-.95-1.66-.38-2.44l2.31-3.16c.57-.78 1.66-.95 2.44-.38.78.56.95 1.66.38 2.44"/></g><g filter="url(#e)"><path fill="#535DFF" d="m23.567 23.473-2.31 3.16c-.57.78-1.66.95-2.44.38s-.95-1.66-.38-2.44l2.31-3.16c.57-.78 1.66-.95 2.44-.38s.95 1.66.38 2.44"/><path fill="url(#f)" d="m23.567 23.473-2.31 3.16c-.57.78-1.66.95-2.44.38s-.95-1.66-.38-2.44l2.31-3.16c.57-.78 1.66-.95 2.44-.38s.95 1.66.38 2.44"/></g><g filter="url(#g)"><path fill="#535DFF" d="m28.567 26.123-2.31 3.16c-.57.78-1.66.95-2.44.38s-.95-1.66-.38-2.44l2.31-3.16c.57-.78 1.66-.95 2.44-.38.78.56.95 1.66.38 2.44"/><path fill="url(#h)" d="m28.567 26.123-2.31 3.16c-.57.78-1.66.95-2.44.38s-.95-1.66-.38-2.44l2.31-3.16c.57-.78 1.66-.95 2.44-.38.78.56.95 1.66.38 2.44"/></g><path fill="url(#i)" d="M12.457 12.003a3.5 3.5 0 1 0 0-7 3.5 3.5 0 0 0 0 7"/><g filter="url(#j)"><path fill="#3124C5" d="M29.957 10.994c0 4.976-4.03 9.009-9 9.009H8.561c-3.648 0-6.604-3.072-6.604-6.506s2.897-6.432 6.545-6.432c.733 0 1.822.266 2.723.614.67.258 1.57-.064 1.89-.706 1.386-2.773 4.27-4.846 7.868-4.846 4.97 0 8.974 3.892 8.974 8.867"/><path fill="url(#k)" d="M29.957 10.994c0 4.976-4.03 9.009-9 9.009H8.561c-3.648 0-6.604-3.072-6.604-6.506s2.897-6.432 6.545-6.432c.733 0 1.822.266 2.723.614.67.258 1.57-.064 1.89-.706 1.386-2.773 4.27-4.846 7.868-4.846 4.97 0 8.974 3.892 8.974 8.867"/><path fill="url(#l)" d="M29.957 10.994c0 4.976-4.03 9.009-9 9.009H8.561c-3.648 0-6.604-3.072-6.604-6.506s2.897-6.432 6.545-6.432c.733 0 1.822.266 2.723.614.67.258 1.57-.064 1.89-.706 1.386-2.773 4.27-4.846 7.868-4.846 4.97 0 8.974 3.892 8.974 8.867"/></g><path fill="url(#m)" d="M30 10.994c0 4.976-4.03 9.009-9 9.009H8.604C4.956 20.003 2 16.93 2 13.497s2.897-6.432 6.545-6.432c.733 0 1.822.266 2.723.614.67.258 1.57-.064 1.89-.706 1.386-2.773 4.27-4.846 7.867-4.846 4.971 0 8.975 3.892 8.975 8.867"/><path fill="url(#n)" d="M30 10.994c0 4.976-4.03 9.009-9 9.009H8.604C4.956 20.003 2 16.93 2 13.497s2.897-6.432 6.545-6.432c.733 0 1.822.266 2.723.614.67.258 1.57-.064 1.89-.706 1.386-2.773 4.27-4.846 7.867-4.846 4.971 0 8.975 3.892 8.975 8.867"/><g filter="url(#o)"><path fill="url(#p)" d="m19.542 19.625-4.852 7.279a.4.4 0 0 1-.733-.222v-5.28a.4.4 0 0 0-.4-.4h-.878a.4.4 0 0 1-.34-.611l3.879-6.205c.213-.341.739-.19.739.212v4.205c0 .22.18.4.4.4h1.853a.4.4 0 0 1 .332.622"/></g><g filter="url(#q)"><path stroke="url(#r)" stroke-linecap="round" stroke-width=".5" d="M11.957 9.113c.597.694 1.801 2.663 1.84 4.987"/></g><defs><radialGradient id="b" cx="0" cy="0" r="1" gradientTransform="rotate(145.744 .551 12.076)scale(2.34511 2.04556)" gradientUnits="userSpaceOnUse"><stop stop-color="#627AFE"/><stop offset="1" stop-color="#627AFE" stop-opacity="0"/></radialGradient><radialGradient id="d" cx="0" cy="0" r="1" gradientTransform="rotate(145.744 2.643 14.172)scale(2.34511 2.04556)" gradientUnits="userSpaceOnUse"><stop stop-color="#627AFE"/><stop offset="1" stop-color="#627AFE" stop-opacity="0"/></radialGradient><radialGradient id="f" cx="0" cy="0" r="1" gradientTransform="rotate(145.744 8.601 14.557)scale(2.34511 2.04556)" gradientUnits="userSpaceOnUse"><stop stop-color="#627AFE"/><stop offset="1" stop-color="#627AFE" stop-opacity="0"/></radialGradient><radialGradient id="h" cx="0" cy="0" r="1" gradientTransform="rotate(145.744 10.693 16.653)scale(2.34511 2.04556)" gradientUnits="userSpaceOnUse"><stop stop-color="#627AFE"/><stop offset="1" stop-color="#627AFE" stop-opacity="0"/></radialGradient><radialGradient id="i" cx="0" cy="0" r="1" gradientTransform="matrix(-3.07567 2.53665 -2.1672 -2.6277 13.437 5.75)" gradientUnits="userSpaceOnUse"><stop stop-color="#4C42D7"/><stop offset="1" stop-color="#35209B"/></radialGradient><radialGradient id="k" cx="0" cy="0" r="1" gradientTransform="matrix(-4.79375 6.77898 -4.2607 -3.01295 14.318 19.572)" gradientUnits="userSpaceOnUse"><stop offset=".303" stop-color="#381B90"/><stop offset="1" stop-color="#381B90" stop-opacity="0"/></radialGradient><radialGradient id="l" cx="0" cy="0" r="1" gradientTransform="matrix(-3.97516 4.1976 -3.96355 -3.75352 9.819 11.065)" gradientUnits="userSpaceOnUse"><stop stop-color="#574ADF"/><stop offset="1" stop-color="#574ADF" stop-opacity="0"/></radialGradient><radialGradient id="m" cx="0" cy="0" r="1" gradientTransform="rotate(142.503 11.128 7.751)scale(10.9332 11.9987)" gradientUnits="userSpaceOnUse"><stop offset=".142" stop-color="#6051FF"/><stop offset="1" stop-color="#6051FF" stop-opacity="0"/></radialGradient><radialGradient id="n" cx="0" cy="0" r="1" gradientTransform="rotate(170.656 10 6.018)scale(19.0964 16.315)" gradientUnits="userSpaceOnUse"><stop offset=".799" stop-color="#35209A" stop-opacity="0"/><stop offset="1" stop-color="#35209A"/></radialGradient><filter id="a" width="6.404" height="6.754" x="2" y="20.596" color-interpolation-filters="sRGB" filterUnits="userSpaceOnUse"><feFlood flood-opacity="0" result="BackgroundImageFix"/><feBlend in="SourceGraphic" in2="BackgroundImageFix" result="shape"/><feColorMatrix in="SourceAlpha" result="hardAlpha" values="0 0 0 0 0 0 0 0 0 0 0 0 0 0 0 0 0 0 127 0"/><feOffset dx=".6" dy="-.1"/><feGaussianBlur stdDeviation=".75"/><feComposite in2="hardAlpha" k2="-1" k3="1" operator="arithmetic"/><feColorMatrix values="0 0 0 0 0.256493 0 0 0 0 0.282719 0 0 0 0 0.741667 0 0 0 1 0"/><feBlend in2="shape" result="effect1_innerShadow_18_15029"/></filter><filter id="c" width="6.404" height="6.754" x="7" y="23.246" color-interpolation-filters="sRGB" filterUnits="userSpaceOnUse"><feFlood flood-opacity="0" result="BackgroundImageFix"/><feBlend in="SourceGraphic" in2="BackgroundImageFix" result="shape"/><feColorMatrix in="SourceAlpha" result="hardAlpha" values="0 0 0 0 0 0 0 0 0 0 0 0 0 0 0 0 0 0 127 0"/><feOffset dx=".6" dy="-.1"/><feGaussianBlur stdDeviation=".75"/><feComposite in2="hardAlpha" k2="-1" k3="1" operator="arithmetic"/><feColorMatrix values="0 0 0 0 0.256493 0 0 0 0 0.282719 0 0 0 0 0.741667 0 0 0 1 0"/><feBlend in2="shape" result="effect1_innerShadow_18_15029"/></filter><filter id="e" width="6.404" height="6.754" x="18.1" y="20.596" color-interpolation-filters="sRGB" filterUnits="userSpaceOnUse"><feFlood flood-opacity="0" result="BackgroundImageFix"/><feBlend in="SourceGraphic" in2="BackgroundImageFix" result="shape"/><feColorMatrix in="SourceAlpha" result="hardAlpha" values="0 0 0 0 0 0 0 0 0 0 0 0 0 0 0 0 0 0 127 0"/><feOffset dx=".6" dy="-.1"/><feGaussianBlur stdDeviation=".75"/><feComposite in2="hardAlpha" k2="-1" k3="1" operator="arithmetic"/><feColorMatrix values="0 0 0 0 0.256493 0 0 0 0 0.282719 0 0 0 0 0.741667 0 0 0 1 0"/><feBlend in2="shape" result="effect1_innerShadow_18_15029"/></filter><filter id="g" width="6.404" height="6.754" x="23.1" y="23.246" color-interpolation-filters="sRGB" filterUnits="userSpaceOnUse"><feFlood flood-opacity="0" result="BackgroundImageFix"/><feBlend in="SourceGraphic" in2="BackgroundImageFix" result="shape"/><feColorMatrix in="SourceAlpha" result="hardAlpha" values="0 0 0 0 0 0 0 0 0 0 0 0 0 0 0 0 0 0 127 0"/><feOffset dx=".6" dy="-.1"/><feGaussianBlur stdDeviation=".75"/><feComposite in2="hardAlpha" k2="-1" k3="1" operator="arithmetic"/><feColorMatrix values="0 0 0 0 0.256493 0 0 0 0 0.282719 0 0 0 0 0.741667 0 0 0 1 0"/><feBlend in2="shape" result="effect1_innerShadow_18_15029"/></filter><filter id="j" width="29" height="19.876" x="1.957" y=".127" color-interpolation-filters="sRGB" filterUnits="userSpaceOnUse"><feFlood flood-opacity="0" result="BackgroundImageFix"/><feBlend in="SourceGraphic" in2="BackgroundImageFix" result="shape"/><feColorMatrix in="SourceAlpha" result="hardAlpha" values="0 0 0 0 0 0 0 0 0 0 0 0 0 0 0 0 0 0 127 0"/><feOffset dx="1" dy="-2"/><feGaussianBlur stdDeviation="1"/><feComposite in2="hardAlpha" k2="-1" k3="1" operator="arithmetic"/><feColorMatrix values="0 0 0 0 0.207843 0 0 0 0 0.12549 0 0 0 0 0.596078 0 0 0 1 0"/><feBlend in2="shape" result="effect1_innerShadow_18_15029"/></filter><filter id="o" width="7.832" height="13.586" x="12.278" y="13.497" color-interpolation-filters="sRGB" filterUnits="userSpaceOnUse"><feFlood flood-opacity="0" result="BackgroundImageFix"/><feBlend in="SourceGraphic" in2="BackgroundImageFix" result="shape"/><feColorMatrix in="SourceAlpha" result="hardAlpha" values="0 0 0 0 0 0 0 0 0 0 0 0 0 0 0 0 0 0 127 0"/><feOffset dx=".5" dy="-.5"/><feGaussianBlur stdDeviation=".25"/><feComposite in2="hardAlpha" k2="-1" k3="1" operator="arithmetic"/><feColorMatrix values="0 0 0 0 0.908333 0 0 0 0 0.312137 0 0 0 0 0.0454167 0 0 0 0.5 0"/><feBlend in2="shape" result="effect1_innerShadow_18_15029"/></filter><filter id="q" width="4.34" height="7.487" x="10.707" y="7.863" color-interpolation-filters="sRGB" filterUnits="userSpaceOnUse"><feFlood flood-opacity="0" result="BackgroundImageFix"/><feBlend in="SourceGraphic" in2="BackgroundImageFix" result="shape"/><feGaussianBlur result="effect1_foregroundBlur_18_15029" stdDeviation=".5"/></filter><linearGradient id="p" x1="16.035" x2="16.035" y1="12.613" y2="25.811" gradientUnits="userSpaceOnUse"><stop offset=".354" stop-color="#FF9B49"/><stop offset="1" stop-color="#FF4E4B"/></linearGradient><linearGradient id="r" x1="12.284" x2="14.124" y1="10.323" y2="15.843" gradientUnits="userSpaceOnUse"><stop stop-color="#554BD3"/><stop offset="1" stop-color="#554BD3" stop-opacity="0"/></linearGradient></defs></svg>
